modules/framework7-icons/icons/book_fill.svg

<?xml version="1.0" encoding="UTF-8"?>
<svg width="50px" height="48px" viewBox="0 0 50 48" version="1.1" xmlns="http://www.w3.org/2000/svg" xmlns:xlink="http://www.w3.org/1999/xlink">
    <!-- Generator: Sketch 40.1 (33804) - http://www.bohemiancoding.com/sketch -->
    <title>book_fill</title>
    <desc>Created with Sketch.</desc>
    <defs></defs>
    <g id="Page-1" stroke="none" stroke-width="1" fill="none" fill-rule="evenodd">
        <g id="book_fill" fill="#000000">
            <path d="M24,46.3735926 C23.8337206,46.1872395 23.641876,45.980323 23.4265795,45.7578225 C22.7738066,45.0832073 22.0451406,44.4081827 21.2618912,43.7801927 C19.084249,42.0342131 16.9267833,41 15,41 C11.5807538,41 10.0665221,41.5059069 7.79062863,42.9881064 C7.83643143,42.9582769 7.30659654,43.3045098 7.15812687,43.4002966 C6.51417163,43.8157516 6.01136021,44.1123539 5.4472136,44.3944272 C4.1254492,45.0553094 3.08453444,45.5568457 2.29291293,45.9209993 C1.80963781,46.1433106 1.51313584,46.2717996 1.37141022,46.3284933 L0,46.8770909 L8.54100068e-17,45.4000244 L2.30585606e-15,7 L2.30585606e-15,6.76393202 L0.105572809,6.5527864 C0.535780781,5.69237046 1.42433684,4.46206207 2.84920863,3.2407434 C5.21143578,1.21597726 8.25137894,8.32361082e-16 12,0 C15.7152496,0 19.0887416,1.19064414 22.0546998,3.16794929 C22.7612636,3.63899174 23.4103589,4.13302587 24,4.63494412 L24,46.3735927 Z M26,46.3748821 C26.1744791,46.18235 26.3955468,45.9425697 26.5775932,45.7545695 C27.2302765,45.0805402 27.9576288,44.4069477 28.7392972,43.7801816 C30.9169083,42.0341051 33.0737559,41 35,41 C38.4192462,41 39.9334779,41.5059069 42.2093714,42.9881064 C42.1635686,42.9582769 42.6934035,43.3045098 42.8418731,43.4002966 C43.4858284,43.8157516 43.9886398,44.1123539 44.5527864,44.3944272 C45.8745508,45.0553094 46.9154656,45.5568457 47.7070871,45.9209993 C48.1903622,46.1433106 48.4868642,46.2717996 48.6285898,46.3284933 L50,46.8770909 L50,45.4000244 L50,7 L50,6.76393202 L49.8944272,6.5527864 C49.4642192,5.69237046 48.5756632,4.46206207 47.1507914,3.2407434 C44.7885642,1.21597726 41.7486211,8.32361082e-16 38,0 C34.2854088,0 30.9124179,1.19023521 27.9467693,3.16697014 C27.2396569,3.63829157 26.5900709,4.13266088 26,4.63494571 L26,46.3748821 Z" id="Combined-Shape"></path>
        </g>
    </g>
</svg>

<svg width="50" height="48" viewBox="0 0 50 48" xmlns="http://www.w3.org/2000/svg"><path d="M24 46.374a23.423 23.423 0 0 0-2.738-2.593C19.084 42.033 16.927 41 15 41c-3.42 0-4.933.506-7.21 1.988.046-.03-.483.317-.632.412-.644.416-1.147.712-1.71.994a111.34 111.34 0 0 1-3.155 1.527c-.483.222-.78.35-.922.407L0 46.878V6.763l.106-.211c.43-.86 1.318-2.09 2.743-3.312C5.211 1.216 8.251 0 12 0c3.715 0 7.089 1.19 10.055 3.168.706.471 1.355.965 1.945 1.467v41.739zm2 0a23.457 23.457 0 0 1 2.74-2.595c2.177-1.745 4.334-2.779 6.26-2.779 3.42 0 4.933.506 7.21 1.988-.046-.03.483.317.632.412.644.416 1.147.712 1.71.994a111.34 111.34 0 0 0 3.155 1.527c.483.222.78.35.922.407l1.371.55V6.763l-.106-.211c-.43-.86-1.318-2.09-2.743-3.312C44.789 1.216 41.749 0 38 0c-3.715 0-7.088 1.19-10.053 3.167-.707.471-1.357.966-1.947 1.468v41.74z" fill="#000" fill-rule="evenodd"/></svg>
